X: 7
T: The Milliner's Daughter
R: reel
M: 4/4
L: 1/8
K: Gmaj
dg~g2 dg~g2|df~f2 df~f2|dgg fg2ge|d^cde fd=cA|dg~g2 bgag|dcde ~f3g|afge fde^c|d2 (3efg fd=cA||


Tune 1409	Setting 22942

